!!!COM: Mozart, Wolfgang Amadeus
!!!CDT: 1756/01/27/-1791/12/05/
!!!CNT: German
!!!OTL: Piano Sonata No. 9 in D major
!!!SCT1: K<sup>1</sup> 311
!!!SCT2: K<sup>6</sup> 284c
!!!OMV: Mvmt. 3
!!!OMD: Rondo: Allegro
!!!ODT: 1777///
**kern	**kern	**dynam
*staff2	*staff1	*staff1/2
*clefF4	*clefG2	*clefG2
*k[f#c#]	*k[f#c#]	*k[f#c#]
*D:	*D:	*D:
*M6/8	*M6/8	*M6/8
*MM120	*MM120	*MM120
.	16aQ/	.
4r	4aa\	p
8r	8ff#\	.
*clefG2	*	*
=1	=1	=1
.	16eeQ/	.
4.d/ 4.f#/	8dd\L	p
.	8cc#'\	.
.	8dd'\J	.
.	16eeQ/	.
4.B/ 4.g#/	8dd\L	.
.	8cc#'\	.
.	8dd'\J	.
=2	=2	=2
4.A/ 4.a/	4dd\ (4ff#\	.
.	8cc#\ 8ee\)	.
.	16gQ/	.
4r	4gg\	.
8r	8ee\	.
=3	=3	=3
.	16ddQ/	.
4.A/ 4.e/	8cc#\L	.
.	8b'\	.
.	8cc#'\J	.
4.c#/ 4.e/	8a'\L	.
.	8ee'\	.
.	8aa'\J	.
=4	=4	=4
4.d/ 4.a/	4ee\ (4gg\	.
.	8dd\ 8ff#\)	.
*clefF4	*	*
.	16ddQ/	.
8D'\L	4ff#\	f
8d'\	.	.
8e'\J	8gg\	.
=5	=5	=5
.	16bbQ/	.
8f#\	8aa\L	.
8r	16gg\L	.
.	16ff#\	.
8r	16ee\	.
.	16dd\JJ	.
.	16ddQ/	.
8D\L	4ff#\	.
8d\	.	.
8e\J	8gg\	.
=6	=6	=6
.	16bbQ/	.
8f#\	8aa\L	.
8r	16gg\L	.
.	16ff#\	.
8r	16ee\	.
.	16dd\JJ	.
.	16ddQ/	.
8G\L	4bb\	.
8g\	.	.
8e\J	8ccc#\	.
=7	=7	=7
8F#\ 8f#\	16ddd\LL	.
.	16ccc#\	.
8r	16bb\	.
.	16aa\	.
8r	16gg\	.
.	16ff#\JJ	.
8G\ 8g\	16bb\LL	.
.	16aa\	.
8r	16gg\	.
.	16ff#\	.
8r	16ee\	.
.	16dd\JJ	.
=8	=8	=8
8A\ 8a\	8cc#\ 8ee\ 8aa\	.
8r	8r	.
8r	8r	.
.	16aQ/	.
4r	4aa\	p
8r	8ff#\	.
*clefG2	*	*
=9	=9	=9
.	16eeQ/	.
4.d/ 4.f#/	8dd\L	p
.	8cc#'\	.
.	8dd'\J	.
.	16eeQ/	.
4.B/ 4.g#/	8dd\L	.
.	8cc#'\	.
.	8dd'\J	.
=10	=10	=10
4.A/ 4.a/	4dd\ (4ff#\	.
.	8cc#\ 8ee\)	.
.	16gQ/	.
4r	4gg\	.
8r	8ee\	.
=11	=11	=11
.	16ddQ/	.
4.A/ 4.e/	8cc#\L	.
.	8b'\	.
.	8cc#'\J	.
4.c#/ 4.e/	8a'\L	.
.	8ee'\	.
.	8aa'\J	.
=12	=12	=12
4.d/ 4.a/	4ee\ (4gg\	.
.	8dd\ 8ff#\)	.
*clefF4	*	*
.	16ddQ/	.
8D\L	4ff#\	f
8d\	.	.
8e\J	8gg\	.
=13	=13	=13
.	16bbQ/	.
8f#\	8aa\L	.
8r	16gg\L	.
.	16ff#\	.
8r	16ee\	.
.	16dd\JJ	.
.	16ggQ/	.
8GG\L	4bb\	.
8G\	.	.
8A\J	8ccc#\	.
=14	=14	=14
.	16eeeQ/	.
8B\	8ddd\L	.
8r	16ccc#\L	.
.	16bb\	.
8r	16aa\	.
.	16gg\JJ	.
.	16ccc#Q/	.
8G\ 8B\ 8e\	8bb\L	.
8r	16aa\L	.
.	16gg\	.
8r	16ff#\	.
.	16ee\JJ	.
=15	=15	=15
.	16bbQ/	.
8A\ 8d\ 8f#\	8aa\L	.
8r	16gg\L	.
.	16ff#\	.
8r	16ee\	.
.	16dd\JJ	.
.	16aaQ/	.
8A\ 8e\ 8g\	8gg\L	.
8r	16ff#\L	.
.	16ee\	.
8r	16dd\	.
.	16cc#\JJ	.
=16	=16	=16
8d\ 8f#\	8dd\	.
8r	8r	.
(16DD/LL	(16d/LL	.
16FF#/JJ	16f#/JJ	.
8AA/)	8a/)	.
8r	8r	.
(16FF#/LL	(16f#/LL	.
16AA/JJ	16a/JJ	.
=17	=17	=17
8D\)	8dd\)	.
8r	8r	.
(16AA/LL	(16a\LL	.
16D/JJ	16dd\JJ	.
8F#\)	8ff#\)	.
8r	8r	.
(16D\LL	(16dd\LL	.
16F#\JJ	16ff#\JJ	.
=18	=18	=18
8A\)	8aa\)	.
8r	8r	.
8r	8r	.
4r	4r	.
8r	8r	.
*clefG2	*	*
=19	=19	=19
*^	*	*
4.d/ 4.f#/	[2.A\	[4aa\	p
.	.	(16aa\LL]	.
.	.	16bb\JJ)	.
4.e/ 4.g/	.	(4dd\	.
.	.	8cc#\)	.
=20	=20	=20	=20
8d/ 8f#/	8A\]	8dd'\L	.
8r	8r	8ddd'\	.
8r	2r	8ccc#'\J	.
4r	.	8bb'\L	.
.	.	8aa'\	.
8r	.	8gg#'\J	.
=21	=21	=21	=21
4.d/ 4.f#/	[2.A\	[4aa\	.
.	.	16aa\LL]	.
.	.	32bbQ/LLL	.
.	.	32aaQ/	.
.	.	32gg#Q/	.
.	.	32aaQ/JJJ	.
.	.	16bb\JJ	.
4.e/ 4.g/	.	(4dd\	.
.	.	8cc#\)	.
=22	=22	=22	=22
8d/ 8f#/	8A\]	8dd'\L	.
8r	8r	8ddd'\	.
8r	2r	8ccc#'\J	.
4r	.	8bb'\L	.
.	.	8aa'\	.
8r	.	8gg#'\J	.
=23	=23	=23	=23
4.d/ 4.f#/	2.A\	[4aa\	.
.	.	16aa\LL]	.
.	.	32bbQ/LLL	.
.	.	32aaQ/	.
.	.	32gg#Q/	.
.	.	32aaQ/JJJ	.
.	.	16bb\JJ	.
4.e/ 4.g/	.	(4dd\	.
.	.	8cc#\)	.
*v	*v	*	*
=24	=24	=24
8f#/	8dd\	.
8r	8r	.
8d\	8r	.
*clefF4	*	*
4.BB/	4.F#/ 4.B/ 4.d/	p
=25	=25	=25
4.GG/	4.B/ 4.d/ 4.e/	.
4.AA/	4.c#/ 4.e/ 4.a/	.
=26	=26	=26
8DD/	8A/ 8d/ 8f#/	.
8r	8r	.
8r	8r	.
8r	8r	.
8DD/ 8D/L	8d'/L	f
8DD/ 8D/J	8d'/J	.
=27	=27	=27
.	32eQ/LLL	.
.	32dQ/	.
.	32c#Q/JJJ	.
4DD/ 4D/	4d/	.
8DD/ 8D/	8d/	.
.	32eQ/LLL	.
.	32dQ/	.
.	32c#Q/JJJ	.
4DD/ 4D/	4d/	.
8DD/ 8D/	8d/	.
=28	=28	=28
4CC#/ 4C#/	4c#/	.
8r	8r	.
.	16eeQ/	.
4r	[4.aa\	.
8r	.	.
*clefG2	*	*
=29	=29	=29
8c#/ 8a/L	8aa\L]	.
8c#/ 8a/	8ccc#'\	p
8c#/ 8a/J	8bb'\J	.
8c#/ 8a/L	8aa'\L	.
8c#/ 8a/	8gg#'\	.
8c#/ 8a/J	8ff#'\J	.
=30	=30	=30
[4.B/ [4.a/	(4.ee\	.
8B/] 8a/]	8dd\)	.
*clefF4	*	*
8BBB/ 8BB/L	8B'/L	f
8BBB/ 8BB/J	8B'/J	.
=31	=31	=31
.	(32c#Q/LLL	.
.	32BQ/	.
.	32A#Q/JJJ	.
4BBB/ 4BB/	4B/)	.
8BBB/ 8BB/	8B/	.
.	(32BQ/LLL	.
.	32AnQ/	.
.	32G#Q/JJJ	.
4AAA/ 4AA/	4A/)	.
8AAA/ 8AA/	8A/	.
=32	=32	=32
4GGG#/ 4GG#/	4G#/	.
8r	8r	.
.	16eeQ/	.
4r	[4.ddd\	.
8r	.	.
=33	=33	=33
8G#\L	16ddd\LL]	.
.	16ccc#\	.
8B\	16bb\	.
.	16aa\	.
8e\J	16gg#\	.
.	16ff#\JJ	.
8G#\L	16ee\LL	.
.	16ff#\	.
8B\	16ee\	.
.	16dd\	.
8e\J	16cc#\	.
.	16b\JJ	.
=34	=34	=34
8A\L	16cc#\LL	.
.	16ee\	.
8c#\	16ff#\	.
.	16gg#\	.
8e\J	16aa\	.
.	16bb\JJ	.
8A\L	16ccc#\LL	.
.	16ddd\	.
8c#\	16eee\	.
.	16ccc#\	.
8e\J	16bb\	.
.	16aa\JJ	.
=35	=35	=35
8G#\L	16ddd\LL	.
.	16ccc#\	.
8B\	16bb\	.
.	16aa\	.
8e\J	16gg#\	.
.	16ff#\JJ	.
8G#\L	16ee\LL	.
.	16ff#\	.
8B\	16ee\	.
.	16dd\	.
8e\J	16cc#\	.
.	16b\JJ	.
=36	=36	=36
8A\L	16cc#\LL	.
.	16ee\	.
8c#\	16ff#\	.
.	16gg#\	.
8e\J	16aa\	.
.	16bb\JJ	.
8A\L	16ccc#\LL	.
.	16ddd\	.
8c#\	16eee\	.
.	16ccc#\	.
8e\J	16bb\	.
.	16aa\JJ	.
=37	=37	=37
8G#\L	16ddd\LL	.
.	16ccc#\	.
8B\	16bb\	.
.	16aa\	.
8e\J	16gg#\	.
.	16ff#\JJ	.
8G#\L	16ee\LL	.
.	16ff#\	.
8B\	16ee\	.
.	16dd\	.
8e\J	16cc#\	.
.	16b\JJ	.
=38	=38	=38
4A\	16cc#\LL	.
.	16ee\	.
.	16ff#\	.
.	16gg#\	.
8r	16aa\	.
.	16bb\JJ	.
4C#\ 4A\	16ccc#\LL	.
.	16bb\	.
.	16aa\	.
.	16gg#\	.
8r	16ff#\	.
.	16ee\JJ	.
=39	=39	=39
4D\ 4A\	16ff#\LL	.
.	16ee\	.
.	16dd\	.
.	16cc#\	.
8r	16b\	.
.	16a\JJ	.
16d\LL	16dd/LL	.
16c#\	16cc#/	.
16B\	16b/	.
16A\	16a/	.
16G#\	16g#/	.
16F#\JJ	16f#/JJ	.
=40	=40	=40
8E\L	8e/L	.
8E\	8g#/ 8b/ 8ee/	.
8E\J	8g#/ 8b/ 8ee/J	.
8E\	8g#\ 8b\ 8ee\	.
8r	8r	.
8r	8r	.
=41	=41	=41
*	*^	*
2.r	4.cc#/	4.e\	p
.	(8b/L	4.d\	.
.	8cc#/	.	.
.	8b/J)	.	.
=42	=42	=42	=42
4.A\	[2.a/	[2.c#\	.
(8G#\L	.	.	.
8A\	.	.	.
8G#\J)	.	.	.
=43	=43	=43	=43
[4.F#\	(4a/]	4.c#\]	.
.	8cc#/)	.	.
4F#\]	(4dd/	4.a\	.
8D\	8ff#/)	.	.
=44	=44	=44	=44
(8E\L	(4ee/	8g#\L	.
8F#\	.	8a\	.
8G#\J	8dd/)	8b\J	.
8A\L	4cc#/	4a\	.
8B\	.	.	.
8c#\J)	8r	8r	.
*clefG2	*	*	*
*	*v	*v	*
=45	=45	=45
*^	*	*
2.f#/ 2.a/	4.d\	[4.b\	.
.	4.d#\	8b\L]	.
.	.	(8cc#\	.
.	.	8b\J)	.
=46	=46	=46	=46
4.g#/	4.e\	[4.b\	.
4.e/ 4.g#/	4.dn\	8b\L]	.
.	.	(8cc#\	.
.	.	8dd\J	.
=47	=47	=47	=47
8e/ 8a/	8c#\	8ee\L)	.
8r	8r	8aa'\	.
2r	8r	8gg#'\J	.
*clefF4	*clefF4	*	*
.	4d\	8ff#'\L	.
.	.	8ee'\	.
.	8F#\ 8A\	8dd'\J	.
*v	*v	*	*
=48	=48	=48
[4.E\ (4.A\	(4cc#\	.
.	16dd\LL	.
.	16cc#\JJ	.
8E\] 8G#\)	8b\)	.
8r	8r	.
8r	8r	.
=49	=49	=49
*	*^	*
2.r	4.cc#/	4.e\	.
.	(8b/L	4.d\	.
.	8cc#/	.	.
.	8b/J)	.	.
=50	=50	=50	=50
4.F#\	[2.a/	4.c#\	.
(8E\L	.	4.c#\ 4.gn\	.
8F#\	.	.	.
8E\J)	.	.	.
=51	=51	=51	=51
(4D\	4a/]	4d\ 4f#\	.
8C#/)	8a#/	8e\	.
(4BB/	4f#/ 4b/	4d\	.
8AAn/)	8r	8cc#\ 8ff#\	.
*	*v	*v	*
=52	=52	=52
(4GG#/	4b\ 4ee\	.
8EE/)	8g#\ 8dd\	.
(8AA/L	4a\ 4cc#\	.
8BB/	.	.
8C#/J)	8r	.
=53	=53	=53
*^	*	*
2.F#/ 2.A/	4.D\	(8b\L	.
.	.	8bb\)	.
.	.	8bb'\J	.
.	4.D#\	8bb\L	.
.	.	8bb\	.
.	.	8bb\J	.
=54	=54	=54	=54
4.E/ 4.G#/	4.Dn\	(8bb\L	.
.	.	8ee\)	.
.	.	8eee'\J	.
4.E/ 4.Gn/	4.C#\	(8eee\L	.
.	.	8aa\)	.
.	.	8aa'\J	.
=55	=55	=55	=55
8F#/	8D\	8aa\L	.
8r	8r	8dd\ 8ff#\	.
2r	8r	8cc#\ 8ee\J	.
.	8E\	8b\ 8dd\L	.
.	8r	8a\ 8cc#\	.
.	8r	8g#\ 8b\J	.
*v	*v	*	*
=56	=56	=56
16A\LL	4.a/	f
16e\	.	.
16c#\	.	.
16e\	.	.
16c#\	.	.
16e\JJ	.	.
16A\LL	4.ccc#\	.
16e\	.	.
16c#\	.	.
16e\	.	.
16c#\	.	.
16e\JJ	.	.
=57	=57	=57
16B\LL	(16ddd\LL	.
16e\	16ccc#\	.
16d\	16bb\	.
16e\	16aa\J	.
16d\	8gg#\J)	.
16e\JJ	.	.
16G#\LL	(16bb\LL	.
16e\	16aa\	.
16B\	16gg#\	.
16e\	16ff#\	.
16B\	16ee\	.
16e\JJ	16dd\JJ)	.
=58	=58	=58
16A\LL	8cc#'\L	.
16e\	.	.
16c#\	8ee'\	.
16e\	.	.
16c#\	8aa'\J	.
16e\JJ	.	.
16A\LL	8ccc#'\L	p
16e\	.	.
16c#\	8eee'\J	.
16e\	.	.
16c#\	8r	.
16e\JJ	.	.
=59	=59	=59
16B\LL	(16ddd\LL	f
16e\	16ccc#\	.
16d\	16bb\	.
16e\	16aa\J	.
16d\	8gg#\J)	.
16e\JJ	.	.
16G#\LL	(16bb\LL	.
16e\	16aa\	.
16B\	16gg#\	.
16e\	16ff#\	.
16B\	16ee\	.
16e\JJ	16dd\JJ)	.
=60	=60	=60
16A\LL	8cc#'\L	.
16e\	.	.
16c#\	8ee'\	f
16e\	.	.
16c#\	8aa'\J	.
16e\JJ	.	.
16A\LL	8ccc#'\L	.
16e\	.	.
16c#\	8eee'\J	.
16e\	.	.
16c#\	8r	.
16e\JJ	.	.
=61	=61	=61
8d\	8r	.
8r	(8ee#\L	p
8r	8ff#\J)	.
*clefG2	*	*
8d/ 8a/	8r	.
8r	(8aa\L	.
8r	8ff#\J)	.
=62	=62	=62
8c#/ 8a/	8r	.
8r	(8dd#\L	.
8r	8een\J)	.
8d/ 8a/	8r	.
8r	(8ff#\L	.
8r	8ddn\J)	.
=63	=63	=63
8e/ 8a/	8r	.
8r	(8b#\L	.
8r	8cc#\J)	.
8e/ 8g#/	8r	.
8r	(8dd\L	.
8r	8bn\J)	.
*clefF4	*	*
=64	=64	=64
16A\LL	4.a/	f
16e\	.	.
16c#\	.	.
16e\	.	.
16c#\	.	.
16e\JJ	.	.
16A\LL	4.ccc#\	.
16e\	.	.
16c#\	.	.
16e\	.	.
16c#\	.	.
16e\JJ	.	.
=65	=65	=65
16B\LL	(16ddd\LL	.
16e\	16ccc#\	.
16d\	16bb\	.
16e\	16aa\J	.
16d\	8gg#\J)	.
16e\JJ	.	.
16G#\LL	(16bb\LL	.
16e\	16aa\	.
16B\	16gg#\	.
16e\	16ff#\	.
16B\	16ee\	.
16e\JJ	16dd\JJ)	.
=66	=66	=66
16A\LL	8cc#'\L	.
16e\	.	.
16c#\	8ee'\	.
16e\	.	.
16c#\	8aa'\J	.
16e\JJ	.	.
16A\LL	8ccc#'\L	p
16e\	.	.
16c#\	8eee'\J	.
16e\	.	.
16c#\	8r	.
16e\JJ	.	.
=67	=67	=67
16B\LL	(16ddd\LL	f
16e\	16ccc#\	.
16d\	16bb\	.
16e\	16aa\J	.
16d\	8gg#\J)	.
16e\JJ	.	.
16G#\LL	(16bb\LL	.
16e\	16aa\	.
16B\	16gg#\	.
16e\	16ff#\	.
16B\	16ee\	.
16e\JJ	16dd\JJ)	.
=68	=68	=68
16A\LL	8cc#'\L	.
16e\	.	.
16c#\	8ee'\	p
16e\	.	.
16c#\	8aa'\J	.
16e\JJ	.	.
16A\LL	8ccc#'\L	.
16e\	.	.
16c#\	8eee'\J	.
16e\	.	.
16c#\	8r	.
16e\JJ	.	.
=69	=69	=69
8d\	8r	.
8r	(8ee#\L	p
8r	8ff#\J)	.
*clefG2	*	*
8d/ 8a/	8r	.
8r	(8aa\L	.
8r	8ff#\J)	.
=70	=70	=70
8c#/ 8a/	8r	.
8r	(8dd#\L	.
8r	8een\J)	.
8d/ 8a/	8r	.
8r	(8ff#\L	.
8r	8ddn\J)	.
=71	=71	=71
8e/ 8a/	8r	.
8r	(8b#\L	.
8r	8cc#\J)	.
8e/ 8g#/	8r	.
8r	(8dd\L	.
8r	8bn\J)	.
*clefF4	*	*
=72	=72	=72
8D\ 8A\	8r	.
8r	8e#'\ 8ee#'\L	f
8r	8f#'\ 8ff#'\J	.
8D\ 8A\	8r	.
8r	8a'\ 8aa'\L	.
8r	8f#'\ 8ff#'\J	.
=73	=73	=73
8C#\ 8A\	8r	.
8r	8d#'/ 8dd#'/L	.
8r	8en'/ 8een'/J	.
8D\ 8A\	8r	.
8r	8f#'/ 8ff#'/L	.
8r	8dn'/ 8ddn'/J	.
=74	=74	=74
8E\ 8A\	8r	.
8r	8B#'/ 8b#'/L	.
8r	8c#'/ 8cc#'/J	.
8E\ 8G#\	8r	.
8r	8d'/ 8dd'/L	.
8r	8Bn'/ 8bn'/J	.
=75	=75	=75
16AA\LL	8c#/ 8a/	.
16A\	.	.
16G#\	8r	.
16A\	.	.
16G#\	8r	.
16A\JJ	.	.
16FF#/LL	4.cc#\ 4.aa\	.
16F#/	.	.
16E#/	.	.
16F#/	.	.
16E#/	.	.
16F#/JJ	.	.
=76	=76	=76
16DD/LL	4dd\ 4bb\	.
16D/	.	.
16C#/	.	.
16D/	.	.
16C#/	8ff#\ 8ddd\	.
16D/JJ	.	.
.	16bQ/	.
16EE/LL	4aa\	.
16E/	.	.
16D#/	.	.
16E/	.	.
16D#/	8gg#\	.
16E/JJ	.	.
=77	=77	=77
16AA\LL	8aa\	.
16A\	.	.
16G#\	8r	.
16A\	.	.
16G#\	8r	.
16A\JJ	.	.
16FF#/LL	8cc#\ 8aa\L	.
16F#/	.	.
16E#/	8cc#\ 8aa\	.
16F#/	.	.
16E#/	8cc#\ 8aa\J	.
16F#/JJ	.	.
=78	=78	=78
16DD/LL	4dd\ (4bb\	.
16D/	.	.
16C#/	.	.
16D/	.	.
16C#/	8ff#\ 8ddd\)	.
16D/JJ	.	.
.	16bQ/	.
16EE/LL	4aa\	.
16E/	.	.
16D#/	.	.
16E/	.	.
16D#/	8gg#\	.
16E/JJ	.	.
=79	=79	=79
8AA/	8aa'\	.
8r	(8cc#\L	p
8r	8dd\J	.
4r	8ee\L	.
.	8ff#\	.
8E\ 8B\ 8d\	8gg#\J	.
=80	=80	=80
8A\ 8c#\	8aa\L)	.
8r	(8cc#\	.
8r	8dd\J	.
4r	8ee\L	.
.	8ff#\	.
(8E\ 8B\ 8d\	8gg#\J	.
=81	=81	=81
8A\) 8c#\	8aa\)	.
(8C#/L	8r	.
8D/J	8r	.
8E\L	4r	.
8F#\	.	.
8G#\J	[8e/ 8b/ (8dd/	.
=82	=82	=82
8A\L)	8e/] 8a/ 8cc#/)	.
(8C#\	8r	.
8D\J	8r	.
8E\L	4r	.
8F#\	.	.
8G#\J	8e/ 8b/ 8dd/	.
=83	=83	=83
8A\)	8r	.
8r	(8b#\L	.
8r	8cc#\J)	<
8A\ 8B\	8r	.
8r	(8cc#\L	.
8r	8dd\J)	.
=84	=84	=84
8A\ 8c#\	8r	.
8r	(8dd#\L	.
8r	8ee\J)	.
8A\ 8d\	8r	.
8r	(8ee#\L	.
8r	8ff#\J)	f
=85	=85	=85
8A\ 8e\	8r	.
8r	(8ff#\L	.
8r	8ggn\J)	.
4r	4r	.
8r	8r	.
=86	=86	=86
2.r	4r	.
.	8r	.
.	16aQ/	.
.	4aa\	p
.	8ff#\	.
*clefG2	*	*
=87	=87	=87
.	16eeQ/	.
4.d/ 4.f#/	8dd\L	.
.	8cc#'\	.
.	8dd'\J	.
.	16eeQ/	.
4.B/ 4.g#/	8dd\L	.
.	8cc#'\	.
.	8dd'\J	.
=88	=88	=88
4.A/ 4.a/	4dd\ (4ff#\	.
.	8cc#\ 8ee\)	.
.	16gQ/	.
4r	4gg\	.
8r	8ee\	.
=89	=89	=89
.	16ddQ/	.
4.A/ 4.e/	8cc#\L	.
.	8b'\	.
.	8cc#'\J	.
4.c#/ 4.e/	8a'\L	.
.	8ee'\	.
.	8aa'\J	.
=90	=90	=90
4.d/ 4.a/	4ee\ (4gg\	.
.	8dd\ 8ff#\)	.
*clefF4	*	*
.	16ddQ/	.
8D'\L	(4ff#\	f
8d'\	.	.
8e'\J	8gg\)	.
=91	=91	=91
.	16bbQ/	.
8f#\	8aa\L	.
8r	16gg\L	.
.	16ff#\	.
8r	16ee\	.
.	16dd\JJ	.
.	16ddQ/	.
8D\L	4ff#\	.
8d\	.	.
8e\J	8gg\	.
=92	=92	=92
.	16bbQ/	.
8f#\	8aa\L	.
8r	16gg\L	.
.	16ff#\	.
8r	16ee\	.
.	16dd\JJ	.
.	16ddQ/	.
8G\L	(4bb\	.
8g\	.	.
8e\J	8ccc#\)	.
=93	=93	=93
8F#\ 8f#\	16ddd\LL	.
.	16ccc#\	.
8r	16bb\	.
.	16aa\	.
8r	16gg\	.
.	16ff#\JJ	.
8G\ 8g\	16bb\LL	.
.	16aa\	.
8r	16gg\	.
.	16ff#\	.
8r	16ee\	.
.	16dd\JJ	.
=94	=94	=94
8A\ 8a\	8cc#\ 8ee\ 8aa\	.
8r	8r	.
8r	8r	.
.	(16aQ/	.
4r	4aa\)	p
8r	8ff#\	.
*clefG2	*	*
=95	=95	=95
.	16eeQ/	.
4.d/ 4.f#/	8dd\L	.
.	8cc#'\	.
.	8dd'\J	.
.	16eeQ/	.
4.B/ 4.g#/	8dd\L	.
.	8cc#'\	.
.	8dd'\J	.
=96	=96	=96
*	*^	*
4.A/ 4.c#/	(4dd#/	4.a\	.
.	8ee/)	.	.
.	.	(16gQ/	.
4r	4.r	4gg\)	.
8r	.	8ee\	.
*	*v	*v	*
=97	=97	=97
.	16ddnQ/	.
4.A/ 4.e/	8cc#\L	.
.	8b'\	.
.	8cc#'\J	.
4.c#/ 4.e/	8a'\L	.
.	8ee'\	.
.	8aa'\J	.
=98	=98	=98
4.d/ 4.a/	4ee\ (4gg\	.
.	8dd\ 8ff#\)	.
*clefF4	*	*
.	16ddQ/	.
8D\L	4ff#\	f
8d\	.	.
8e\J	8gg\	.
=99	=99	=99
.	16bbQ/	.
8f#\	8aa\L	.
8r	16gg\L	.
.	16ff#\	.
8r	16ee\	.
.	16dd\JJ	.
.	16ggQ/	.
8GG\L	4bb\	.
8G\	.	.
8A\J	8ccc#\	.
=100	=100	=100
.	16eeeQ/	.
8B\	8ddd\L	.
8r	16ccc#\L	.
.	16bb\	.
8r	16aa\	.
.	16gg\JJ	.
.	16ccc#Q/	.
8G\ 8B\ 8e\	8bb\L	.
8r	16aa\L	.
.	16gg\	.
8r	16ff#\	.
.	16ee\JJ	.
=101	=101	=101
.	16bbQ/	.
8A\ 8d\ 8f#\	8aa\L	.
8r	16gg\L	.
.	16ff#\	.
8r	16ee\	.
.	16dd\JJ	.
.	16aaQ/	.
8A\ 8e\ 8g\	8gg\L	.
8r	16ff#\L	.
.	16ee\	.
8r	16dd\	.
.	16cc#\JJ	.
=102	=102	=102
8d\ 8f#\	8dd\	.
8r	8r	.
(16FF#/LL	(16f#/LL	.
16AA/JJ	16a/JJ	.
8D\)	8dd\)	.
8r	8r	.
(16AA/LL	(16a\LL	.
16D/JJ	16dd\JJ	.
=103	=103	=103
8F#\)	8ff#\)	.
8r	8r	.
(16D\LL	(16dd\LL	.
16F#\JJ	16ff#\JJ	.
8A\)	8aa\)	.
8r	8r	.
(16F#\LL	(16ff#\LL	.
16A\JJ	16aa\JJ	.
=104	=104	=104
8cn\)	8cccn\)	.
8r	8r	.
8r	8r	.
4r	4r	.
8r	8r	.
=105	=105	=105
*^	*	*
4.G/ 4.B/	[2.D\	[4dd\	.
.	.	16dd\LL]	.
.	.	16ee\JJ	.
4.A/ 4.cn/	.	(4g/	.
.	.	8f#/)	.
=106	=106	=106	=106
8G/ 8B/	8D\]	8g'\L	.
8r	8r	8gg'\	.
2r	8r	8ff#'\J	.
.	4r	8ee'\L	.
.	.	8dd'\	.
.	8r	8cc#'\J	.
*v	*v	*	*
=107	=107	=107
*k[f#c#]	*k[f#c#]	*k[f#c#]
*^	*	*
4.G/ 4.B/	[2.D\	[4dd\	.
.	.	16dd\LL]	.
.	.	32eeQ/LLL	.
.	.	32ddQ/	.
.	.	32cc#Q/	.
.	.	32ddQ/JJJ	.
.	.	16ee\JJ	.
4.A/ 4.cn/	.	(4g/	.
.	.	8f#/)	.
=108	=108	=108	=108
8G/ 8B/	8D\]	8g'\L	.
8r	8r	8gg'\	.
2r	8r	8ff#'\J	.
.	4r	8ee'\L	.
.	.	8dd'\	.
.	8r	8cc#'\J	.
=109	=109	=109	=109
4.G/ 4.B/	2.D\	[4dd\	.
.	.	16dd\LL]	.
.	.	32eeQ/LLL	.
.	.	32ddQ/	.
.	.	32cc#Q/	.
.	.	32ddQ/JJJ	.
.	.	16ee\JJ	.
4.A/ 4.cn/	.	(4g/	.
.	.	8f#/)	.
=110	=110	=110	=110
8B/	8G\	8g/	.
8r	8r	8r	.
2r	8r	8r	.
.	4.E\	4.B/ 4.e/ 4.g/	p
*v	*v	*	*
=111	=111	=111
4.Cn/	4.e/ 4.g/ 4.a/	.
4.D\	4.f#/ 4.a/ 4.dd/	.
=112	=112	=112
8GG/	8d/ 8g/ 8b/	.
8r	8r	.
8r	8r	.
4.CCn/ 4.Cn/	4.G/ 4.cn/ 4.e/	f
=113	=113	=113
4.AAA/ 4.AA/	4.cn/ 4.e/ 4.f#/	.
4.BBB/ 4.BB/	4.d#/ 4.f#/ 4.b/	.
=114	=114	=114
8EE/	8B/ 8e/ 8g/	.
8r	8r	.
8r	8r	.
4.BB/	4.F#/ 4.B/ 4.dn/	p
=115	=115	=115
4.GG/	4.B/ 4.d/ 4.e/	.
4.AA/	4.c#/ 4.e/ 4.a/	.
=116	=116	=116
8DD/	8A/ 8d/ 8f#/	.
8r	8r	.
8r	8r	.
4.AA#\ 4.A#\	4.e/ 4.g/ 4.cc#/	f
=117	=117	=117
4.BB\ 4.B\	4.d/ 4.f#/ 4.dd/	.
4.GG/ 4.G/	4.b\ 4.ee#\	.
=118	=118	=118
8FF#/ 8F#/	8a#\ 8cc#\ 8ff#\	.
8G\L	8r	.
8F#\J	8r	.
8E\L	4r	.
8D\	.	.
8C#\J	8r	.
=119	=119	=119
8BB/	8r	.
8r	8ff#\L	p
8r	8ff#\J	.
*clefG2	*	*
16b\LL	8gg\L	.
16dd\	.	.
16b\	8ff#\	.
16dd\	.	.
16b\	8ff#\J	.
16dd\JJ	.	.
=120	=120	=120
16a#\LL	8gg\L	.
16cc#\	.	.
16a#\	8ff#\	.
16cc#\	.	.
16a#\	8ff#\J	.
16cc#\JJ	.	.
16an\LL	4ff#\	.
16ccn\	.	.
16a\	.	.
16cc\	.	.
16a\	16gg\LL	.
16cc\JJ	16aa\JJ	.
=121	=121	=121
16g#/LL	8bb\L	.
16b/	.	.
16g#/	8ee\	.
16b/	.	.
16g#/	8ee\J	.
16b/JJ	.	.
16gn/LL	8ff#\L	.
16b/	.	.
16g/	8ee\	.
16b/	.	.
16g/	8ee\J	.
16b/JJ	.	.
=122	=122	=122
16f#/LL	8ee\L	.
16b/	.	.
16f#/	8dd\	.
16b/	.	.
16f#/	8dd\J	.
16b/JJ	.	.
16f#/LL	4dd\	.
16a/	.	.
16f#/	.	.
16a/	.	.
16f#/	16ee\LL	.
16a/JJ	16ff#\JJ	.
=123	=123	=123
16e/LL	8gg\L	.
16g/	.	.
16e/	8ccn\	.
16g/	.	.
16e/	8cc\J	.
16g/JJ	.	.
16e/LL	4cc\	.
16g/	.	.
16e/	.	.
16g/	.	.
16e/	8gg\	.
16g/JJ	.	.
=124	=124	=124
16d/LL	8ff#\L	.
16f#/	.	.
16d/	8b\	.
16f#/	.	.
16d/	8b\J	.
16f#/JJ	.	.
16d/LL	4b\	.
16f#/	.	.
16d/	.	.
16f#/	.	.
16d/	[8ff#\	.
16f#/JJ	.	.
=125	=125	=125
16A#/LL	(8ff#\L]	.
16f#/	.	.
16A#/	8ee\)	.
16f#/	.	.
16A#/	8cc#'\J	.
16f#/JJ	.	.
16B/LL	(8ee\L	.
16f#/	.	.
16B/	8dd\)	.
16f#/	.	.
16B/	8b'\J	.
16f#/JJ	.	.
*clefF4	*	*
=126	=126	=126
8F#\	16a#\LL	.
.	16b\	.
8r	16cc#\	.
.	16dd\	.
8r	16cc#\	.
.	16dd\JJ	.
16F#\LL	8cc#\	f
16G\	.	.
16F#\	8r	.
16E\	.	.
16D\	8r	.
16C#\JJ	.	.
=127	=127	=127
*	*^	*
8BB/	16dd/LL	8r	f
.	16bb/	.	.
8r	16dd/	8f#\L	.
.	16bb/	.	.
2r	16dd/	8f#\J	.
.	16bb/JJ	.	.
.	16dd/LL	8g\L	.
.	16bb/	.	.
.	16dd/	8f#\	.
.	16bb/	.	.
.	16dd/	8f#\J	.
.	16bb/JJ	.	.
=128	=128	=128	=128
2.r	16cc#/LL	8g\L	.
.	16bb/	.	.
.	16cc#/	8f#\	.
.	16bb/	.	.
.	16cc#/	8f#\J	.
.	16bb/JJ	.	.
.	16cc#/LL	4f#\	.
.	16aan/	.	.
.	16cc#/	.	.
.	16aa/	.	.
.	16cc#/	16g\LL	.
.	16aa/JJ	16a\JJ	.
=129	=129	=129	=129
2.r	16dd#/LL	8b\L	.
.	16aa/	.	.
.	16ee/	8e\	.
.	16gg/	.	.
.	16ee/	8e\J	.
.	16gg/JJ	.	.
.	16b/LL	8f#\L	.
.	16gg/	.	.
.	16b/	8e\	.
.	16gg/	.	.
.	16cc#/	8e\J	.
.	16gg/JJ	.	.
=130	=130	=130	=130
2.r	16a/LL	8e\L	.
.	16gg/	.	.
.	16a/	8d\	.
.	16gg/	.	.
.	16a/	8d\J	.
.	16gg/JJ	.	.
.	16a/LL	4d\	.
.	16ff#/	.	.
.	16a/	.	.
.	16ff#/	.	.
.	16a/	16e\LL	.
.	16ff#/JJ	16f#\JJ	.
*	*v	*v	*
=131	=131	=131
8g\L	16b/LL	.
.	16ff#/	.
8G\	16b/	.
.	16ee/	.
8G\J	16b/	.
.	16dd#/JJ	.
4G\	16ee\LL	.
.	16bb\	.
.	16ee\	.
.	16aa\	.
16A\LL	16ee\	.
16B\JJ	16gg#\JJ	.
=132	=132	=132
8c#\L	16ee\LL	.
.	16aa\	.
8F#\	16ddn\	.
.	16aa\	.
8F#\J	16cc#\	.
.	16aa\JJ	.
4F#\	16ggn\LL	.
.	16aa#\	.
.	16ff#\	.
.	16bb\	.
16G#\LL	16ee\	.
16A#\JJ	16ccc#\JJ	.
=133	=133	=133
8B\L	16dd\LL	.
.	16ccc#\	.
8F#\	16dd\	.
.	16ccc#\	.
8Gn\J	16dd\	.
.	16bb\JJ	.
8E\L	16cc#\LL	.
.	16bb\	.
8C#\J	16cc#\	.
.	16bb\	.
8f#\	16cc#\	.
.	16aa\JJ	.
=134	=134	=134
8d#\L	16b\LL	.
.	16aa\	.
8B\	16b\	.
.	16aa\	.
8e\J	16b\	.
.	16gg\JJ	.
8c#\L	16a\LL	.
.	16gg\	.
8A\J	16a\	.
.	16gg\	.
8Dn\	16a\	.
.	16ff#\JJ	.
=135	=135	=135
8BB/L	16g\LL	.
.	16ff#\	.
8GG/	16g\	.
.	16ff#\	.
8C#/J	16g\	.
.	16ee\JJ	.
8AA#/L	16f#\LL	.
.	16ee\	.
8FF#/J	16f#\	.
.	16ee\	.
8B\	16f#\	.
.	16dd\JJ	.
=136	=136	=136
8G#\L	16e/LL	.
.	16dd/	.
8E\	16e/	.
.	16dd/	.
8An\J	16e/	.
.	16ccn/JJ	.
8F#\L	16d/LL	.
.	16cc/	.
8D\	16d/	.
.	16cc/	.
8Gn\J	16d/	.
.	16b/JJ	.
=137	=137	=137
2.CCn/ 2.Cn/	(16e/LL	.
.	16b/	.
.	16a/	.
.	16g#/	.
.	16a/	.
.	16b/JJ	.
.	16ccn\LL	.
.	16dd\	.
.	16ee\	.
.	16cc\	.
.	16b\	.
.	16a\JJ)	.
=138	=138	=138
8r	(4.B/ 4.gn/	.
8D\L	.	.
8D\J	.	.
16D/LL	8A/) 8f#/	.
16E/	.	.
16D/	8r	.
16Cn/	.	.
16BB/	8r	.
16AA/JJ	.	.
=139	=139	=139
4GG/	8r	.
.	(8dd'\L	p
8r	8dd'\J	.
4r	8dd'\L	.
.	8dd'\	.
8r	8dd'\J)	.
=140	=140	=140
8r	(4.dd\	.
8A\ 8cn\ 8d\L	.	.
8A\ 8c\ 8d\J	.	.
8A\ 8c\ 8d\L	8f#/)	.
8A\ 8c\ 8d\	8r	.
8A\ 8c\ 8d\J	8r	.
=141	=141	=141
4B\ 4d\	8r	.
.	8g'/L	.
8r	8b'/J	.
4r	8dd'\L	.
.	8gg'\	.
8r	8bb'\J	.
=142	=142	=142
8r	(4.ddd\	.
8F#\ 8A\ 8d\L	.	.
8F#\ 8A\ 8d\J	.	.
8F#\ 8A\ 8d\L	8cccn\)	.
8F#\ 8A\ 8d\	8r	.
8F#\ 8A\ 8d\J	8r	.
=143	=143	=143
8G\ 8d\	8r	.
8r	16bb\LL	.
.	16cccn\	.
8r	16ddd\	.
.	16bb\JJ	.
8B\ 8d\	8gg\	.
8r	16gg\LL	.
.	16aa\	.
8r	16bb\	.
.	16gg\JJ	.
*clefG2	*	*
=144	=144	=144
8cn/ 8g/	8ee\	.
8r	16ee\LL	.
.	16ff#\	.
8r	16gg\	.
.	16ee\JJ	.
8e/ 8g/	8cc#\	.
8r	16cc#\LL	.
.	16dd\	.
8r	16ee\	.
.	16cc#\JJ	.
=145	=145	=145
(8d/L	(8dd\L	.
8c#/	8ee\	.
8cn/J	8ff#\J	.
8B/L)	8gg\L)	.
8c'/	8ee'\	.
8e'/J	8ccn'\J	.
=146	=146	=146
8r	(4.g/ 4.b/	.
8d/L	.	.
8d/J	.	.
16d/LL	8f#/) 8a/	.
16e/	.	.
16d/	8r	.
16cn/	.	.
16B/	8r	.
16A/JJ	.	.
=147	=147	=147
4G/	8r	.
.	8dd\L	.
8r	8dd\J	.
4r	(8ee\L	.
.	8dd\)	.
8r	8dd'\J	.
*clefF4	*	*
=148	=148	=148
8r	(4.dd\	.
8A\ 8cn\ 8d\L	.	.
8A\ 8c\ 8d\J	.	.
8A\ 8c\ 8d\L	8f#/)	.
8A\ 8c\ 8d\	8r	.
8A\ 8c\ 8d\J	8r	.
=149	=149	=149
4B\ 4d\	16r	.
.	(16g\LL	.
.	16b\	.
.	16g\	.
8r	16dd\	.
.	16b\JJ)	.
4r	(16gg\LL	.
.	16dd\	.
.	16bb\	.
.	16gg\	.
8r	16ddd\)	.
.	16ddd'\JJ	.
=150	=150	=150
8r	[4ddd\	.
8F#\ 8A\ 8d\L	.	.
8F#\ 8A\ 8d\J	(16ddd\LL]	.
.	16ccc#\JJ	.
8F#\ 8A\ 8d\L	8cccn\)	.
8F#\ 8A\ 8d\	8r	.
8F#\ 8A\ 8d\J	8r	.
=151	=151	=151
8G\ 8d\	8r	.
8r	16bb\LL	.
.	16cccn\	.
8r	16ddd\	.
.	16bb\JJ	.
8B\ 8d\	8gg\	.
8r	16gg\LL	.
.	16aa\	.
8r	16bb\	.
.	16gg\JJ	.
*clefG2	*	*
=152	=152	=152
8cn/ 8g/	8ee\	.
8r	16ee\LL	.
.	16ff#\	.
8r	16gg\	.
.	16ee\JJ	.
8e/ 8g/	8cc#\	.
8r	16cc#\LL	.
.	16dd\	.
8r	16ee\	.
.	16cc#\JJ	.
*clefF4	*	*
=153	=153	=153
2.D\ 2.d\	(8dd\L	.
.	8cc#\	.
.	8ccn\J	.
.	8b\L	.
.	8cc\J)	.
.	8a/	.
=154	=154	=154
8G\	8g/	.
8r	8r	.
(16BB/LL	(16B/LL	f
16D/JJ	16d/JJ	.
8G\)	8g/)	.
8r	8r	.
(16D\LL	(16d/LL	.
16G\JJ	16g/JJ	.
=155	=155	=155
8B\)	8b\)	.
8r	8r	.
(16G\LL	(16g/LL	.
16B\JJ	16b/JJ	.
8d\)	8dd\)	.
8r	8r	.
(16B\LL	(16b\LL	.
16d\JJ	16dd\JJ	.
=156	=156	=156
8g\)	8gg\)	.
8r	8r	.
8r	8r	.
4r	4r	.
8r	8r	.
*clefG2	*	*
=157	=157	=157
*^	*	*
4r	4r	[4bb\	.
8r	8r	(16bb\LL]	.
.	.	16cccn\JJ)	.
4.f#/ 4.a/	4.B\	(4ee\	.
.	.	8dd#\)	.
*v	*v	*	*
=158	=158	=158
8e/ 8g/	8ee'\L	.
8r	8eee'\	.
8r	8dddn'\J	.
4r	8cccn'\L	.
.	8bb'\	.
8r	8aa#'\J	.
=159	=159	=159
4r	[4bb\	.
.	32cccnQ/LLL	.
.	32bbQ/	.
.	32aa#Q/JJJ	.
8r	16bb\LL]	.
.	16cccn\JJ	.
4.B/ 4.f#/ 4.a/	(4ee\	.
.	8dd#\)	.
=160	=160	=160
8e/ 8g/	8ee'\L	.
8r	8eee'\	.
8r	8dddn'\J	.
4r	8cccn'\L	.
.	8bb'\	.
8r	8bb-'\J	.
=161	=161	=161
4r	[4aan\	.
.	32bbnQ/LLL	.
.	32aaQ/	.
.	32gg#Q/JJJ	.
8r	16aa\LL]	.
.	16bbn\JJ	.
4.A/ 4.e/ 4.g/	(4ddn\	.
.	8cc#\)	.
=162	=162	=162
8d/ 8f#/	8dd'\L	.
8r	8ddd'\	.
8r	8ccc#'\J	.
4r	8bb'\L	.
.	8aa'\	.
8r	8gg#'\J	.
=163	=163	=163
4r	4aa\	.
.	32bbQ/LLL	.
.	32aaQ/	.
.	32gg#Q/JJJ	.
8r	(16aa\LL	.
.	16bb\JJ)	.
4.A/ 4.e/ 4.g/	(4dd\	.
.	8cc#\)	.
=164	=164	=164
8d/ 8f#/	8dd'\L	.
8r	8ff#'\	.
8r	8ee'\J	.
4r	8dd'\L	.
.	8cc#'\	.
8r	8b'\J	.
*clefF4	*	*
=165	=165	=165
4r	4ee\	.
.	32ff#Q/LLL	.
.	32eeQ/	.
.	32dd#Q/JJJ	.
8r	(16ee\LL	.
.	16ff#\JJ)	.
4.E\ 4.B\ 4.d\	(4a/	.
.	8g#/)	.
=166	=166	=166
8A\ 8c#\	8a'\L	.
8r	8aa'\	.
8r	8gg#'\J	.
4r	8ff#'\L	.
.	8ee'\	.
8r	8dd#'\J	.
=167	=167	=167
4r	4ee\	.
.	32ff#Q/LLL	.
.	32eeQ/	.
.	32ddQ/JJJ	.
8r	(16ee\LL	.
.	16ff#\JJ)	.
4.E\ 4.B\ 4.d\	(4a/	.
.	8g#/)	.
=168	=168	=168
8AA\ 8A\L	16a/LL	.
.	16e/	.
8AA\ 8A\	16c#/	.
.	16e/	.
8AA\ 8A\J	16a/	.
.	16e/JJ	.
8AA\ 8A\L	16a/LL	.
.	16e/	.
8AA\ 8A\	16c#/	.
.	16e/	.
8AA\ 8A\J	16a/	.
.	16e/JJ	.
=169	=169	=169
8AA\ 8G#\L	16b/LL	<
.	16e/	.
8AA\ 8G#\	16d/	.
.	16e/	.
8AA\ 8G#\J	16b/	.
.	16e/JJ	.
8AA\ 8G#\L	16b/LL	.
.	16e/	.
8AA\ 8G#\	16d/	.
.	16e/	.
8AA\ 8G#\J	16b/	.
.	16e/JJ	.
=170	=170	=170
8AA\ 8Gn\L	16cc#/LL	.
.	16gn/	.
8AA\ 8G\	16e/	.
.	16g/	.
8AA\ 8G\J	16cc#/	.
.	16g/JJ	.
8AA/ 8F#/L	16dd/LL	.
.	16a/	.
8AA/ 8F#/	16f#/	.
.	16a/	.
8AA/ 8F#/J	16dd/	.
.	16a/JJ	.
=171	=171	=171
8AA/ 8E/L	16ee\LL	.
.	16cc#\	.
8AA/ 8E/	16a\	.
.	16cc#\	.
8AA/ 8E/J	16ee\	.
.	16cc#\JJ	.
8AA/ 8D/L	16ff#\LL	.
.	16dd\	.
8AA/ 8D/	16a\	.
.	16dd\	.
8AA/ 8D/J	16ff#\	.
.	16dd\JJ	.
=172	=172	=172
2.AA;\ 2.C#;\ 2.E;\ 2.A;\	2.a;\ 2.cc#;\ 2.ee;\ [2.gg;\	.
=173||	=173||	=173||
1ryy	(8.gg\L]	.
.	16ee\Jk)	.
.	(8.ccc#\L	.
.	16aa\Jk)	.
.	(4.eee\	.
.	8ddd\	.
2.ryy	8ccc#\L	.
.	8bb\	.
.	8aa\	.
.	8gg#\J)	.
.	(24aa\LL	.
.	24aa#\	.
.	24bb\	.
.	24aan\	.
.	24ggn\	.
.	24ff#\JJ	.
2.ryy	24aa\LL	.
.	24gg\	.
.	24bb\	.
.	24aa\	.
.	24gg\	.
.	24ff#\JJ	.
.	24ee\LL	.
.	24ff#\	.
.	24gg\	.
.	24ff#\	.
.	24aa\	.
.	24gg\JJ	.
.	24ff#\LL	.
.	24ee\	.
.	24dd\	.
.	24cc#\	.
.	24b\	.
.	24a\JJ)	.
2.ryy	4g;/	.
.	32f#Q/LLL	.
.	32gQ/JJJ	.
.	(16g#\LL	.
.	16a\	.
.	16a#\	.
.	16b\	.
.	16ccn\	.
.	16cc#\	.
.	16dd\	.
.	16dd#\JJ	.
2.r	16ee\LL	.
.	16ffn\	.
.	16ff#\	.
.	16gg\	.
.	24gg#\	.
.	24aa\	.
.	24aa#\JJ	.
.	8bb\)	.
.	8r;	.
!! Adagio
.	16aa#Q/	.
.	8gg#'\	.
4.ryy	8r	.
.	16ff#Q/	.
.	8ee'\	.
.	8r	.
2.ryy	8ff#\L	.
.	32ggQ/LLL	.
.	32ff#Q/	.
.	32eeQ/	.
.	32ff#Q/JJJ	.
.	(16.aa\L	.
.	32gg\JJk)	.
.	8gg\L	.
.	32aaQ/LLL	.
.	32ggQ/	.
.	32ggQ/JJJ	.
.	16gg/	.
.	16gg#\	.
.	8bb\	.
.	8aa\J	.
=174||	=174||	=174||
!! Tempo primo
.	16aQ/	.
4r	4aa\	.
8r	8ff#\	.
*clefG2	*	*
=175	=175	=175
.	16eeQ/	.
4.d/ 4.f#/	8dd\L	p
.	8cc#'\	.
.	8dd'\J	.
.	16eeQ/	.
4.B/ 4.g#/	8dd\L	.
.	8cc#'\	.
.	8dd'\J	.
=176	=176	=176
4.A/ 4.a/	4dd\ (4ff#\	.
.	8cc#\ 8ee\)	.
.	16gQ/	.
4r	(4gg\	.
8r	8ee\)	.
=177	=177	=177
.	16ddQ/	.
4.A/ 4.e/	8cc#'\L	.
.	8b'\	.
.	8cc#'\J	.
4.c#/ 4.e/	8a'\L	.
.	8ee'\	.
.	8aa'\J	.
=178	=178	=178
4.d/ 4.a/	4ee\ (4gg\	.
.	8dd\ 8ff#\)	.
*clefF4	*	*
.	16ddQ/	.
8D'\L	4ff#\	f
8d'\	.	.
8e'\J	8gg\	.
=179	=179	=179
.	16bbQ/	.
8f#\	8aa\L	.
8r	16gg\L	.
.	16ff#\	.
8r	16ee\	.
.	16dd\JJ	.
.	16ddQ/	.
8D\L	4ff#\	.
8d\	.	.
8e\J	8gg\	.
=180	=180	=180
.	16bbQ/	.
8f#\	8aa\L	.
8r	16gg\L	.
.	16ff#\	.
8r	16ee\	.
.	16dd\JJ	.
.	(16ddQ/	.
8G\L	4bb\)	.
8g\	.	.
8e\J	8ccc#\	.
=181	=181	=181
8F#\ 8f#\	16ddd\LL	.
.	16ccc#\	.
8r	16bb\	.
.	16aa\	.
8r	16gg\	.
.	16ff#\JJ	.
8G\ 8g\	16bb\LL	.
.	16aa\	.
8r	16gg\	.
.	16ff#\	.
8r	16ee\	.
.	16dd\JJ	.
=182	=182	=182
8A\ 8a\	8cc#\ 8ee\ 8aa\	.
8r	8r	.
8r	8r	.
.	16AQ/	.
4r	4a/	p
8r	8f#/	.
=183	=183	=183
.	16eQ/	.
4.D\ 4.F#\	8d/L	.
.	8c#'/	.
.	8d'/J	.
.	16eQ/	.
4.BB\ 4.G#\	8d/L	.
.	8c#'/	.
.	8d'/J	.
=184	=184	=184
4.AA\ 4.A\	(4d/ 4f#/	.
.	8c#/) 8e/	.
.	16GQ/	.
4r	(4g/	.
8r	8e/)	.
=185	=185	=185
.	16dQ/	.
4.AA/ 4.E/	8c#'/L	.
.	8B'/	.
.	8c#'/J	.
4.C#\ 4.E\	8A'/L	.
.	8e'/	.
.	8a'/J	.
=186	=186	=186
4.D\ 4.A\	(4e/ 4g/	.
.	8d/) 8f#/	.
.	16ddQ/	.
8D\L	4ff#\	f
8d\	.	.
8e\J	8gg\	.
=187	=187	=187
.	16bbQ/	.
8f#\	8aa\L	.
8r	16gg\L	.
.	16ff#\	.
8r	16ee\	.
.	16dd\JJ	.
.	16ggQ/	.
8GG\L	4bb\	.
8G\	.	.
8A\J	8ccc#\	.
=188	=188	=188
.	16eeeQ/	.
8B\	8ddd\L	.
8r	16ccc#\L	.
.	16bb\	.
8r	16aa\	.
.	16gg\JJ	.
.	16ccc#Q/	.
8G\ 8B\ 8e\	8bb\L	.
8r	16aa\L	.
.	16gg\	.
8r	16ff#\	.
.	16ee\JJ	.
=189	=189	=189
.	16bbQ/	.
8A\ 8d\ 8f#\	8aa\L	.
8r	16gg\L	.
.	16ff#\	.
8r	16ee\	.
.	16dd\JJ	.
.	16aaQ/	.
8A\ 8e\ 8g\	8gg\L	.
8r	16ff#\L	.
.	16ee\	.
8r	16dd\	.
.	16cc#\JJ	.
=190	=190	=190
8d\ 8f#\	8dd\	.
8r	8r	.
8r	8r	.
8r	8r	.
8DD/ 8D/L	8d'/L	f
8DD/ 8D/J	8d'/J	.
=191	=191	=191
.	32eQ/LLL	.
.	32dQ/	.
.	32c#Q/JJJ	.
4DD/ 4D/	4d/	.
8DD/ 8D/	8d/	.
.	32eQ/LLL	.
.	32dQ/	.
.	32c#Q/JJJ	.
4DD/ 4D/	4d/	.
8DD/ 8D/	8d/	.
=192	=192	=192
4CCn/ 4Cn/	4cn/	.
8r	8r	.
.	16aQ/	.
4r	[4.aa\	.
8r	.	.
*clefG2	*	*
=193	=193	=193
8ccn\ 8dd\L	8aa\L]	p
8cc\ 8dd\	8cccn'\	.
8cc\ 8dd\J	8bb'\J	.
8cc\ 8dd\L	8aa'\L	.
8cc\ 8dd\	8gg'\	.
8cc\ 8dd\J	8ff#'\J	.
=194	=194	=194
[4.b\ [4.dd\	(4.aa\	.
8b\] 8dd\]	8gg\)	.
*clefF4	*	*
8BBB/ 8BB/L	8B'/L	f
8BBB/ 8BB/J	8B'/J	.
=195	=195	=195
*^	*	*
.	.	(32BQ/LLL	.
.	.	32AQ/	.
.	.	32G#Q/JJJ	.
4AAA/ 4AA/	4.r	4A/)	.
8AAA/ 8AA/	.	8A/	.
*v	*v	*	*
32AQ/LLL	.	.
32GnQ/	.	.
32F#Q/JJJ	.	.
*^	*	*
4G/	4GGG\ 4GG\	4.r	.
8G/	8GGG\ 8GG\	.	.
=196	=196	=196	=196
4F#/	4FFF#\ 4FF#\	4.r	.
8r	8r	.	.
.	.	(16ddQ/	.
4r	4r	[4.cccn\)	.
8r	8r	.	.
*v	*v	*	*
=197	=197	=197
8F#\L	16cccn\LL]	.
.	16bb\	.
8A\	16aa\	.
.	16gg\	.
8d\J	16ff#\	.
.	16ee\JJ	.
8F#\L	16dd\LL	.
.	16ee\	.
8A\	16dd\	.
.	16ccn\	.
8d\J	16b\	.
.	16a\JJ	.
=198	=198	=198
8G\L	16b\LL	.
.	16dd\	.
8B\	16ee\	.
.	16ff#\	.
8d\J	16gg\	.
.	16aa\JJ	.
8G\L	16bb\LL	.
.	16cccn\	.
8B\	16ddd\	.
.	16bb\	.
8d\J	16bb\	.
.	16gg\JJ	.
=199	=199	=199
8F#\L	16cccn\LL	.
.	16bb\	.
8A\	16aa\	.
.	16gg\	.
8d\J	16ff#\	.
.	16ee\JJ	.
8F#\L	16dd\LL	.
.	16ee\	.
8A\	16dd\	.
.	16ccn\	.
8d\J	16b\	.
.	16a\JJ	.
=200	=200	=200
8G\L	16b\LL	.
.	16dd\	.
8B\	16ee\	.
.	16ff#\	.
8d\J	16gg\	.
.	16aa\JJ	.
8G\L	16bb\LL	.
.	16cccn\	.
8B\	16ddd\	.
.	16bb\	.
8d\J	16aa\	.
.	16gg\JJ	.
=201	=201	=201
8D#\L	16aa\LL	.
.	16gg\	.
8F#\	16ff#\	.
.	16ee\	.
8B\J	16dd#\	.
.	16ccn\JJ	.
8D#\L	16b/LL	.
.	16cc/	.
8F#\	16b/	.
.	16a/	.
8B\J	16g/	.
.	16f#/JJ	.
=202	=202	=202
8E\L	16g\LL	.
.	16b\	.
8G\	16cc#\	.
.	16dd#\	.
8B\J	16ee\	.
.	16ff#\JJ	.
8E\L	16gg\LL	.
.	16aa\	.
8G\	16bb\	.
.	16gg\	.
8B\J	16ff#\	.
.	16ee\JJ	.
=203	=203	=203
8C#\L	16gg\LL	.
.	16ff#\	.
8E\	16ee\	.
.	16ddn\	.
8A\J	16cc#\	.
.	16b\JJ	.
8C#\L	16a/LL	.
.	16b/	.
8E\	16a/	.
.	16g/	.
8A\J	16f#/	.
.	16e/JJ	.
=204	=204	=204
8D\L	16f#\LL	.
.	16a\	.
8F#\	16b\	.
.	16cc#\	.
8A\J	16dd\	.
.	16ee\JJ	.
8D\L	16ff#\LL	.
.	16gg\	.
8F#\	16aa\	.
.	16bb\	.
8A\J	16ccc#\	.
.	16ddd\JJ	.
=205	=205	=205
4G\	16bb\LL	.
.	16aa\	.
.	16gg\	.
.	16ff#\	.
8r	16ee\	.
.	16dd\JJ	.
*clefG2	*	*
16g/LL	16gg\LL	.
16f#/	16ff#\	.
16e/	16ee\	.
16d/	16dd\	.
16c#/	16cc#\	.
16B/JJ	16b\JJ	.
=206	=206	=206
8A/	8a\L	.
*clefF4	*	*
8AA\ 8A\L	8cc#\ 8ee\ 8aa\	.
8AA\ 8A\J	8cc#\ 8ee\ 8aa\J	.
8AA\ 8A\	8cc#\ 8ee\ 8aa\	.
8r	8r	.
8r	8r	.
=207	=207	=207
*	*^	*
2.r	4.ff#/	4.a\	p
.	(8ee/L	4.g\	.
.	8ff#/	.	.
.	8ee/J)	.	.
=208	=208	=208	=208
4.d\	[2.dd/	[2.f#\	.
(8c#\L	.	.	.
8d\	.	.	.
8c#\J)	.	.	.
=209	=209	=209	=209
[4.B\	(4dd/]	4.f#\]	.
.	8ff#/)	.	.
(4B\]	(4gg/	4.dd\	.
8G\)	8bb/)	.	.
=210	=210	=210	=210
8A\L	4aa/	8cc#\L	.
8B\	.	8dd\	.
8c#\J	8gg/	8ee\J	.
8d\L	8ff#/	8dd\	.
8e\	4r	8r	.
8f#\J	.	8r	.
*clefG2	*	*	*
*	*v	*v	*
=211	=211	=211
*^	*	*
2.b/ 2.dd/	4.g\	[4.ee\	.
.	4.g#\	8ee\L]	.
.	.	(8ff#\	.
.	.	8ee\J)	.
=212	=212	=212	=212
4.cc#/	4.a\	[4.ee\	.
4.a/ 4.cc#/	4.gn\	8ee\L]	.
.	.	(8ff#\	.
.	.	8gg\J	.
=213	=213	=213	=213
8a/ 8dd/	8f#\	8aa\L)	.
8r	8r	8ddd'\	.
8r	2r	8ccc#'\J	.
4g/	.	8bb'\L	.
.	.	8aa'\	.
8B/ 8d/	.	8gg'\J	.
*v	*v	*	*
=214	=214	=214
[4.A/ (4.d/	(4ff#\	.
.	16gg\LL	.
.	16ff#\JJ	.
8A/] 8c#/)	8ee\)	.
8r	8r	.
8r	8r	.
=215	=215	=215
*	*^	*
2.r	4.ff#/	4.a\	.
.	(8ee/L	4.g\	.
.	8ff#/	.	.
.	8ee/J)	.	.
*clefF4	*	*	*
=216	=216	=216	=216
4.B\	[2.dd/	4.f#\	.
(8A\L	.	4.f#\ 4.ccn\	.
8B\	.	.	.
8A\J)	.	.	.
=217	=217	=217	=217
(4G\	4b/ 4dd/]	4g\	.
8F#\)	8b/ 8dd#/	8a\	.
(4E\	4b/ 4ee/	4g\	.
8Dn\)	8r	8ff#\ 8bb\	.
*	*v	*v	*
=218	=218	=218
(4C#/	4ee\ 4aa\	.
8AA/)	8cc#\ 8gg\	.
(8D\L	4dd\ 4ff#\	.
8E\	.	.
8F#\J)	8r	.
=219	=219	=219
*^	*	*
2.B/ 2.d/	4.G\	(8ee\L	.
.	.	8eee\)	.
.	.	8eee'\J	.
.	4.G#\	8eee\L	.
.	.	8eee\	.
.	.	8eee\J	.
=220	=220	=220	=220
4.A/ 4.c#/	4.Gn\	(8eee\L	.
.	.	8aa\)	.
.	.	8aa'\J	.
4.A/ 4.cn/	4.F#\	(8aa\L	.
.	.	8ddd\)	.
.	.	8ddd'\J	.
=221	=221	=221	=221
8B/	8G\	8ddd\L	.
8r	8r	8gg\ 8bb\	.
2r	8r	8ff#\ 8aa\J	.
.	8A\	8ee\ 8gg\L	.
.	8r	8dd\ 8ff#\	.
.	8r	8cc#\ 8ee\J	.
*v	*v	*	*
=222	=222	=222
16D\LL	4.dd\	f
16A\	.	.
16F#\	.	.
16A\	.	.
16F#\	.	.
16A\JJ	.	.
16D\LL	4.ff#\	.
16A\	.	.
16F#\	.	.
16A\	.	.
16F#\	.	.
16A\JJ	.	.
=223	=223	=223
16E\LL	(16gg\LL	.
16A\	16ff#\	.
16G\	16ee\	.
16A\	16dd\J	.
16G\	8cc#\J)	.
16A\JJ	.	.
16C#\LL	(16ee\LL	.
16A\	16dd\	.
16E\	16cc#\	.
16A\	16b\	.
16E\	16a\	.
16A\JJ	16g\JJ)	.
=224	=224	=224
16D\LL	8f#'/L	.
16A\	.	.
16F#\	8a'/	.
16A\	.	.
16F#\	8dd'/J	.
16A\JJ	.	.
16D\LL	8ff#'\L	p
16A\	.	.
16F#\	8aa'\J	.
16A\	.	.
16F#\	8r	.
16A\JJ	.	.
=225	=225	=225
16E\LL	(16gg\LL	f
16A\	16ff#\	.
16G\	16ee\	.
16A\	16dd\J	.
16G\	8cc#\J)	.
16A\JJ	.	.
16C#\LL	(16ee\LL	.
16A\	16dd\	.
16E\	16cc#\	.
16A\	16b\	.
16E\	16a\	.
16A\JJ	16g\JJ)	.
=226	=226	=226
16D\LL	8f#'/L	.
16A\	.	.
16F#\	8a'/	p
16A\	.	.
16F#\	8dd'/J	.
16A\JJ	.	.
16D\LL	8ff#'\L	.
16A\	.	.
16F#\	8aa'\J	.
16A\	.	.
16F#\	8r	.
16A\JJ	.	.
=227	=227	=227
8G\	8r	.
8r	(8aa#\L	p
8r	8bb\J)	.
*clefG2	*	*
8g\ 8dd\	8r	.
8r	(8ddd\L	.
8r	8bb\J)	.
=228	=228	=228
8f#/ 8dd/	8r	.
8r	(8gg#\L	.
8r	8aan\J)	.
8g\ 8dd\	8r	.
8r	(8bb\L	.
8r	8ggn\J)	.
=229	=229	=229
8a\ 8dd\	8r	.
8r	(8ee#\L	.
8r	8ff#\J)	.
8a\ 8cc#\	8r	.
8r	(8gg\L	.
8r	8een\J)	.
*clefF4	*	*
=230	=230	=230
16D\LL	4.dd\	f
16A\	.	.
16F#\	.	.
16A\	.	.
16F#\	.	.
16A\JJ	.	.
16D\LL	4.ff#\	.
16A\	.	.
16F#\	.	.
16A\	.	.
16F#\	.	.
16A\JJ	.	.
=231	=231	=231
16E\LL	(16gg\LL	.
16A\	16ff#\	.
16G\	16ee\	.
16A\	16dd\J	.
16G\	8cc#\J)	.
16A\JJ	.	.
16C#\LL	(16ee\LL	.
16A\	16dd\	.
16E\	16cc#\	.
16A\	16b\	.
16E\	16a\	.
16A\JJ	16g\JJ)	.
=232	=232	=232
16D\LL	8f#'/L	.
16A\	.	.
16F#\	8a'/	.
16A\	.	.
16F#\	8dd'/J	.
16A\JJ	.	.
16D\LL	8ff#'\L	p
16A\	.	.
16F#\	8aa'\J	.
16A\	.	.
16F#\	8r	.
16A\JJ	.	.
=233	=233	=233
16E\LL	(16gg\LL	f
16A\	16ff#\	.
16G\	16ee\	.
16A\	16dd\J	.
16G\	8cc#\J)	.
16A\JJ	.	.
16C#\LL	(16ee\LL	.
16A\	16dd\	.
16E\	16cc#\	.
16A\	16b\	.
16E\	16a\	.
16A\JJ	16g\JJ)	.
=234	=234	=234
16D\LL	8f#'/L	.
16A\	.	.
16F#\	8a'/	p
16A\	.	.
16F#\	8dd'/J	.
16A\JJ	.	.
16D\LL	8ff#'\L	.
16A\	.	.
16F#\	8aa'\J	.
16A\	.	.
16F#\	8r	.
16A\JJ	.	.
=235	=235	=235
8G\	8r	.
8r	(8aa#\L	p
8r	8bb\J)	.
*clefG2	*	*
8g\ 8dd\	8r	.
8r	(8ddd\L	.
8r	8bb\J)	.
=236	=236	=236
8f#/ 8dd/	8r	.
8r	(8gg#\L	.
8r	8aan\J)	.
8g\ 8dd\	8r	.
8r	(8bb\L	.
8r	8ggn\J)	.
=237	=237	=237
8a\ 8dd\	8r	.
8r	(8ee#\L	.
8r	8ff#\J)	.
8a\ 8cc#\	8r	.
8r	(8gg\L	.
8r	8een\J)	.
*clefF4	*	*
=238	=238	=238
8G\ 8d\	8r	.
8r	8a#'\ 8aa#'\L	f
8r	8b'\ 8bb'\J	.
8G\ 8d\	8r	.
8r	8dd'\ 8ddd'\L	.
8r	8b'\ 8bb'\J	.
=239	=239	=239
8F#\ 8d\	8r	.
8r	8g#'\ 8gg#'\L	.
8r	8an'\ 8aan'\J	.
8G\ 8d\	8r	.
8r	8b'\ 8bb'\L	.
8r	8gn'\ 8ggn'\J	.
=240	=240	=240
8A\ 8d\	8r	.
8r	8e#'\ 8ee#'\L	.
8r	8f#'\ 8ff#'\J	.
8A\ 8c#\	8r	.
8r	8g'\ 8gg'\L	.
8r	8en'\ 8een'\J	.
=241	=241	=241
16D\LL	8f#/ 8dd/	.
16d\	.	.
16c#\	8r	.
16d\	.	.
16c#\	8r	.
16d\JJ	.	.
16BB\LL	4.f#/ 4.dd/	.
16B\	.	.
16A#\	.	.
16B\	.	.
16A#\	.	.
16B\JJ	.	.
=242	=242	=242
16GG\LL	4g\ 4ee\	.
16G\	.	.
16F#\	.	.
16G\	.	.
16F#\	8b\ 8gg\	.
16G\JJ	.	.
.	16eQ/	.
16AA\LL	(4dd\	.
16A\	.	.
16G#\	.	.
16A\	.	.
16G#\	8cc#\)	.
16A\JJ	.	.
=243	=243	=243
16D\LL	8dd\	.
16d\	.	.
16c#\	8r	.
16d\	.	.
16c#\	8r	.
16d\JJ	.	.
16BB\LL	8f#/ 8dd/L	.
16B\	.	.
16A#\	8f#/ 8dd/	.
16B\	.	.
16A#\	8f#/ 8dd/J	.
16B\JJ	.	.
=244	=244	=244
16GG\LL	4g\ 4ee\	.
16G\	.	.
16F#\	.	.
16G\	.	.
16F#\	8b\ 8gg\	.
16G\JJ	.	.
.	16eQ/	.
16AA\LL	4dd\	.
16A\	.	.
16G#\	.	.
16A\	.	.
16G#\	8cc#\	.
16A\JJ	.	.
=245	=245	=245
8D\	8dd\	.
8r	(8f#/L	p
8r	8a/J	.
4r	8b\L	.
.	8cc#\	.
8r	8dd\J)	.
=246	=246	=246
8A\ 8c#\	8ee\	.
8r	(8a/L	.
8r	8b/J	.
4r	8cc#\L	.
.	8dd\	.
8r	8ee\J)	.
=247	=247	=247
8D\ 8d\	8ff#\	.
8r	8f#/ (8a/L	.
8r	8a/ 8cc#/J	.
4r	8b\ 8dd\L	.
.	8cc#\ 8ee\	.
8r	8dd\ 8ff#\J)	.
=248	=248	=248
8A\ 8c#\ 8e\	8ee\ 8gg\	.
8r	8a\ (8cc#\L	.
8r	8b\ 8dd\J	.
4r	8cc#\ 8ee\L	.
.	8dd\ 8ff#\	.
8r	8ee\ 8gg\J)	.
=249	=249	=249
8d\ 8f#\	8ff#\ 8aa\	.
8r	8r	.
8r	8r	.
.	(16aQ/	.
4r	(4aa\)	.
8r	8ff#\)	.
*clefG2	*	*
=250	=250	=250
.	16eeQ/	.
4.d/ 4.f#/	8dd'\L	.
.	8cc#'\	.
.	8dd'\J	.
.	16eeQ/	.
4.B/ 4.g#/	8dd'\L	.
.	8cc#'\	.
.	8dd'\J	.
=251	=251	=251
4.A/ 4.a/	4dd\ (4ff#\	.
.	8cc#\ 8ee\)	.
.	16gQ/	.
4r	(4gg\	.
8r	8ee\)	.
=252	=252	=252
.	16ddQ/	.
4.A/ 4.e/	8cc#'\L	.
.	8b'\	.
.	8cc#'\J	.
4.c#/ 4.e/	8a'\L	.
.	8ee'\	.
.	8aa'\J	.
=253	=253	=253
4.d/ 4.a/	4ee\ (4gg\	.
.	8dd\ 8ff#\)	.
*clefF4	*	*
.	16ddQ/	.
8D'\L	(4ff#\	f
8d'\	.	.
8e'\J	8gg\)	.
=254	=254	=254
.	16bbQ/	.
8f#\	8aa\L	.
8r	16gg\L	.
.	16ff#\	.
8r	16ee\	.
.	16dd\JJ	.
*clefG2	*	*
.	16ggQ/	.
8G/L	(4bb\	.
8g/	.	.
8a/J	8ccc#\)	.
=255	=255	=255
.	16eeeQ/	.
8b\	8ddd\L	.
8r	16ccc#\L	.
.	16bb\	.
8r	16aa\	.
.	16gg\JJ	.
*clefF4	*	*
8G\ 8B\ 8e\	8bb\L	.
8r	16aa\L	.
.	16gg\	.
8r	16ff#\	.
.	16ee\JJ	.
=256	=256	=256
.	16bbQ/	.
8A\ 8d\ 8f#\	8aa\L	.
8r	16gg\L	.
.	16ff#\	.
8r	16ee\	.
.	16dd\JJ	.
.	16aaQ/	.
8A\ 8e\ 8g\	8gg\L	.
8r	16ff#\L	.
.	16ee\	.
8r	16dd\	.
.	16cc#\JJ	.
=257	=257	=257
8d\ 8f#\	8dd\	.
8r	8r	.
(16DD/LL	(16d/LL	.
16FF#/JJ	16f#/JJ	.
8AA/)	8a/)	.
8r	8r	.
(16FF#/LL	(16f#/LL	.
16AA/JJ	16a/JJ	.
=258	=258	=258
8D\)	8dd\)	.
8r	8r	.
(16AA/LL	(16a\LL	.
16D/JJ	16dd\JJ	.
8F#\)	8ff#\)	.
8r	8r	.
(16D\LL	(16dd\LL	.
16F#\JJ	16ff#\JJ	.
=259	=259	=259
8A\)	8aa\)	.
8r	8r	.
8r	8r	.
4r	4r	.
8r	8r	.
*clefG2	*	*
=260	=260	=260
*^	*	*
4.d/ 4.f#/	[2.A\	[4aa\	p
.	.	(16aa\LL]	.
.	.	16bb\JJ)	.
4.e/ 4.g/	.	(4dd\	.
.	.	8cc#\)	.
=261	=261	=261	=261
8d/ 8f#/	8A\]	8dd'\L	.
8r	8r	8ddd'\	.
8r	2r	8ccc#'\J	.
4r	.	8bb'\L	.
.	.	8aa'\	.
8r	.	8gg#'\J	.
=262	=262	=262	=262
4.d/ 4.f#/	2.A\	[4aa\	.
.	.	(16aa\LL]	.
.	.	32bbQ/LLL	.
.	.	32aaQ/	.
.	.	32gg#Q/	.
.	.	32aaQ/JJJ	.
.	.	16bb\JJ)	.
4.e/ 4.g/	.	(4dd\	.
.	.	8cc#\)	.
=263	=263	=263	=263
8d/ 8f#/	8A\	8dd'\L	.
8r	8r	8ddd'\	.
8r	2r	8ccc#'\J	.
4r	.	8bb'\L	.
.	.	8aa'\	.
8r	.	8gg#'\J	.
=264	=264	=264	=264
4.d/ 4.f#/	2.A\	[4aa\	.
.	.	16aa\LL]	.
.	.	32bbQ/LLL	.
.	.	32aaQ/	.
.	.	32gg#Q/	.
.	.	32aaQ/JJJ	.
.	.	16bb\JJ	.
4.e/ 4.g/	.	(4dd\	.
.	.	8cc#\)	.
=265	=265	=265	=265
8f#/	8d\	8dd\	.
8r	8r	8r	.
8r	2r	8r	.
*clefF4	*clefF4	*	*
4.BB/	.	4.F#/ 4.B/ 4.d/	p
*v	*v	*	*
=266	=266	=266
4.GG/	4.B/ 4.d/ 4.e/	.
4.AA/	4.c#/ 4.e/ 4.a/	.
=267	=267	=267
*	*^	*
8DD/	4.r	8A/ 8d/ 8f#/	.
8r	.	8r	.
8r	.	8r	.
8BB\ 8B\L	16bb/LL	8ff#\L	f
.	16ddd/	.	.
8BB\ 8B\	16bb/	8ff#\	.
.	16ddd/	.	.
8BB\ 8B\J	16bb/	8ff#\J	.
.	16ddd/JJ	.	.
=268	=268	=268	=268
8GG/ 8G/L	16bb/LL	8ee\L	.
.	16ddd/	.	.
8GG/ 8G/	16bb/	8ee\	.
.	16ddd/	.	.
8GG/ 8G/J	16bb/	8ee\J	.
.	16ddd/JJ	.	.
8AA\ 8A\L	16gg/LL	8ee\L	.
.	16ccc#/	.	.
8AA\ 8A\	16gg/	8ee\	.
.	16ccc#/	.	.
8AA\ 8A\J	16gg/	8ee\J	.
.	16ccc#/JJ	.	.
*	*v	*v	*
=269	=269	=269
8DD/ 8D/	8dd\ 8ff#\ 8aa\ 8ddd\	.
8r	8r	.
8r	8r	.
8DD/ 8FF#/ 8AA/ 8D/	8a\ 8dd\ 8ff#\ 8aa\	.
8r	8r	.
8r	8r	.
=270	=270	=270
8DD/ 8FF#/ 8AA/ 8D/	8a\ 8dd\ 8ff#\	.
8r	8r	.
8r	8r	.
4r	4r	.
8r	8r	.
==	==	==
*-	*-	*-
!!!SMS: Alte Mozart-Ausgabe, Band 20, Breitkopf &amp; H&auml;rtel 1877-1883.
!!!ONB: Stich und Druck von Breitkopf &amp; H&auml;rtel in Leipzig
!!!ONB: Ausgegeben 1878
!!!ENC: Craig Stuart Sapp
!!!END: 2009/10/15/
!!!title: @{OTL}, K 311 (284c), @{OMV}
!!!hum2abc: --no-tempo -s 0.65 --spacing 2.0 -p "%gracespace  0 6.0 12.0"
